!!!!SEGMENT: 062-1-BH-001.krn
!!!COM: F. Chopin
!!!OTL: No. I.
!!!OPS: Op. 62
!!!PTL: Deux Nocturnes
!!!PPR: Breitkopf & Härtel
!!!PPP: Leipzig
!!!NIFC-rismID: 1001030767
!!!NIFC-shelfmark: PL-Wbfc 417/n
!!!OMD: Andante.
**kern	**kern	**dynam
*part1	*part1	*part1
*staff2	*staff1	*
*clefF4	*clefG2	*
*k[f#c#g#d#a#]	*k[f#c#g#d#a#]	*
*B:	*B:	*
*M4/4	*M4/4	*
*met(c)	*met(c)	*
=1-	=1-	=1-
*ped	*	*
[>4qqCC#/	.	.
[>4qqGG#/	.	.
[>4qqC#/	.	.
[>4qqG#/	.	.
[>4qqB/	.	.
.	[>4qqe	.
.	[>4qqg#/	.
.	4qqee/	.
!	!LO:TX:a:t=P:łuk od 4qqCC# do 1ee:problem	!
!	!LO:TX:a:t=P:forte przed przednutkami; dim. od 4qqe:problem	!
!LO:TX:b:t=P:pedalizacja pod 4qqCC#:problem	!	!
1B] 1G#] 1C#] 1GG#] 1CC#]	1ee 1g#] 1e]	f >
*Xped	*	*
.	.	.
=2	=2	=2
*ped	*	*
1A# 1FF#	1cc# 1f# 1e	]]
*Xped	*	*
.	.	.
=3	=3	=3
1rF	2r	.
!	!LO:TX:b:i:t=dolce	!
.	.	.
.	(>8bL	.
.	8a#	.
.	8g#	.
!	!LO:TX:b:i:t=legato	!
.	8f#J	.
=4	=4	=4
*^	*^	*
*	*^	*	*	*
*ped	*	*	*	*	*
!	!	!LO:TX:b:t=P:złamana belka:problem	!	!	!
!	!	!	!LO:TX:a:t=P:łuk pionowo od 4dd# do 4d#:problem	!	!
4ryy	4.ryy	(>8BBB\L	>4dd#	4d#	.
.	.	8F#\	.	.	.
4B	.	8B\	8cc#L	4d#	.
*Xped	*	*	*	*	*
.	4F#/	8F#\J	8bJ)	.	.
2ryy	.	8c#\L	(>8bL	4e	.
.	4.F#/	8F#\	8a#	.	.
.	.	.	(<8qqa#/	.	.
.	.	8B\	8g#	4e)	.
.	.	8A#\J)	8f#J	.	.
*v	*v	*v	*	*	*
=5	=5	=5	=5
*ped	*	*	*
(>8BBL	4ff#	2an 2d#	.
8F#	.	.	.
8B	4ff#	.	.
*Xped	*	*	*
8B#XJ	.	.	.
*ped	*	*	*
8d#L)	4ff#/ 4a/	2ryy	.
(>8BB#X	.	.	.
8C#	8eeL 8g# 8e	.	.
*Xped	*	*	*
.	.	.	.
8BnJ 8D#	8dd#J 8f#	.	.
!!LO:LB:g=original
=6	=6	=6	=6
*^	*	*^	*
*	*^	*	*	*	*
8ryy	4E/	8EL	8dd#L	2ryy	4.g#	.
4B	.	8B	8cc#	.	.	.
.	2.ryy	8E	8.ee	.	.	.
8ryy	.	8E#XJ	.	.	8g#	.
.	.	.	16dd#Jk	.	.	.
!	!	!	!	!	!LO:TX:a:t=P:łuk pionowo od 2e do 4dd#:problem	!
4B/	.	[<2F#)	4dd#	8g#/	[<2e\	.
.	.	.	.	[>4.f#/	.	.
(>8A#/L	.	.	8.cc#L	.	.	.
8d#J	.	.	.	.	.	.
.	.	.	16bJk	.	.	.
*	*	*	*	*v	*v	*
=7	=7	=7	=7	=7	=7
4c#	2ryy	8F#L]	8bL	4f#] 4e]	.
.	.	8F#	8a#	.	.
4ryy	.	8B	8g#	4e	.
.	.	8A#J)	8f#J)	.	.
*ped	*	*	*	*	*
!	!	!	!LO:TX:a:t=P:łuk pionowo od 4d# do 4dd#:problem	!	!
!	!	!LO:TX:b:t=P:złamana belka:problem	!	!	!
4ryy	8ryy	(>8BBBL	(>4dd# 4f#	4d#	.
.	4F#/	8F#	.	.	.
4B	.	8B	8cc#L	4d#	.
*Xped	*	*	*	*	*
.	8ryy	8F#J	8bJ	.	.
=8	=8	=8	=8	=8	=8
4c#	8ryy	8c#L	8bL	4e	.
.	4F#/	8F#	8a#J	.	.
.	.	.	.	.	<
2.ryy	.	8B	12a#L	4e	.
.	.	.	12g#	.	.
.	2ryy	8A#J)	.	.	.
.	.	.	12f#J)	.	.
.	.	.	4qqd#/	.	.
*ped	*	*	*	*	*
.	.	(<8BBB/L	(>4ff#)	2an 2d#	.
.	.	8BB/	.	.	.
.	.	8F#/	4ff#	.	.
*Xped	*	*	*	*	*
.	8ryy	8B/J)	.	.	[
*	*v	*v	*	*	*
=9	=9	=9	=9	=9
!LO:TX:b:t=P:złamana belka:b:problem	!	!	!	!
*ped	*	*	*	*
2ryy	(>8EEL	4ff# 4an 4d#	4ryy	.
.	.	.	.	>
.	8B#X	.	.	.
*Xped	*	*	*	*
.	8c#	8eeL 8g#	4e	.
.	8G#J	8dd#J 8bn	.	.
4.Bn	8EL	8dd#L	4g#	.
.	8E#X	8cc#	.	.
.	8F#	8dd# 8f#	4ryy	.
8B	8G#J	8bJ 8e	.	]
*v	*v	*	*	*
!!LO:LB:g=original
=10	=10	=10	=10
8F#)	8d#	8d#L)	.
.	.	.	<
8r	(>4g#	8B#X	.
4FF#	.	8e	.
.	4a#	8c#J	.
*ped	*	*	*
!LO:TX:b:t=P:łuk od 4BB do 4F#:problem	!	!	!
4F# 4FF# 4BBB	.	8f#	[[
*Xped	*	*	*
.	4bn)	4d#	.
(<8DD#L	.	.	.
8F##XJ)	8ryy	(>\8a# 8c#\	.
=11	=11	=11	=11
*	*	*^	*
(>8GG#L	4r	8a#L	4B\	.
8D#	.	8g#	.	.
8A#	8rff	8f##X	4ryy	.
8B#XJ 8G#)	(>8dd#	8f#XJ	.	.
(>8C#L	4dd#	8e)	2ryy	.
8G#	.	4g#	.	.
8c#	4ee)	.	.	.
8G#J)	.	(>8a#	.	.
*	*	*v	*v	*
=12	=12	=12	=12
*	*Xtuplet	*	*
*ped	*	*	*
(>\8GG#L	12ryy	12cc#L	.
.	12ryy	12b	.
8D#	.	.	.
.	24ryy	24r	.
*	*tuplet	*	*
.	(>24dd#	24a#Jk)	.
8B	8.dd#L	(>12a#L	.
*Xped	*	*	*
.	.	.	.
.	.	12g#	.
8GG#J)	.	.	.
.	.	24r	.
.	16dd#Jk	.	.
.	.	24f#Jk)	.
*ped	*	*	*
(>8C#L	4dd#	8eL	.
8G#	.	8g#	.
.	8qee/L	.	.
.	8qdd#/	.	.
.	8qcc##X/	.	.
.	8qdd#/J	.	.
8e	8.ff#L	8g#	.
8C#J)	.	8a#J	.
*Xped	*	*	*
.	16eeJk	.	.
=13	=13	=13	=13
(>8GG#L	4dd#	8cc#L	.
8D#	.	8b	.
8C#	8.dd#L	8a#	.
8BJ)	.	8g#J	.
.	16ee#XJk	.	.
(>8AA#L	8ee#	8cc#	.
!	!LO:N:vis=4	!	!
8c#	8ff#)	4f#	.
8BB	(>16f##XLL	.	.
.	16g#	.	.
8F#J)	16cc#	8d#	.
.	16bJJ	.	.
!!LO:LB:g=original
=14	=14	=14	=14
*ped	*	*	*
!	!LO:TX:a:t=P:łuk pionowo od 8B do 8a#:problem	!	!
(<\8CC#L	8a#L 8f# 8d# 8B	2ryy	.
8C#	16dd#L	.	>
.	16cc#JJ	.	.
8B>	16a#LL 16e#X 16B	.	.
*Xped	*	*	*
.	16cc#	.	.
8C#J)	16g# 16d# 16B	.	.
.	16cc#JJ	.	.
(>8FF#L	4f#)	8d#L 8B	.
8F#	.	8c#J 8A#)	]
8D#	(>8a#L 8f# 8c#	4ryy	.
8G#J)	8b#XJ 8f# 8d#	.	.
=15	=15	=15	=15
*ped	*	*	*
!LO:TX:b:t=P:złamana belka:problem	!	!	!
(>8CC#L	8cc#L 8e	8ryy	.
8G#	8g#J	4g#	.
.	8qg#/	.	.
8e	[>4gg#	.	.
*Xped	*	*	*
.	.	.	.
8G#J)	.	8g#	.
*ped	*	*	*
(>8GG#L	8gg#L]	8f#L	.
8G#	8dd#	8g#	.
8f# 8d#	8ee	8b#X	.
*Xped	*	*	*
.	.	.	.
8G#J)	8ff#J	8g#J	.
=16	=16	=16	=16
*ped	*	*	*
(>8C#L	4ee	8cc#L	.
8G#	.	8g#	.
*Xped	*	*	*
.	.	.	.
*ped	*	*	*
!LO:TX:b:t=P:łuk pionowo od 4GG# do 4B#:problem	!	!	!
8B#X 8GG#	8dd#L	8f#	.
*Xped	*	*	*
8G#J)	8eeJ	8g#J	.
*ped	*	*	*
(>8c#L 8C#	4cc#	8eL	.
*Xped	*	*	*
8G#	.	8g#	.
*ped	*	*	*
8AA#	4ee	8cc#	.
8c#J)	.	8g#J)	.
*Xped	*	*	*
.	.	.	.
=17	=17	=17	=17
*ped	*	*	*
(>\8DD#L	(>4.dd#	8c#L	.
8D#	.	8d#	.
8A#	.	8f##X	.
*Xped	*	*	*
8D#J)	8cc#	8d#J	.
(>\8GG#L	8bL	8g#L	.
8D#	8a#	8d#	.
8G#	8g#	8B	.
8D#J)	8bJ	8d#J	.
!!LO:LB:g=original
=18	=18	=18	=18
*ped	*	*	*
(>\8DD#L	8a#L	8f##XL	.
8D#	8cc#	8d#	.
8F##X	8a#	8c#	.
*Xped	*	*	*
*ped	*	*	*
8D#J)	8bJ	8d#J	.
*ped	*	*	*
(>\8DD#L	4g#	8g#L	.
8C##X	.	8e	.
8G#	[>4b	8B	.
*Xped	*	*	*
8C##J)	.	8eJ)	.
=19	=19	=19	=19
*ped	*	*	*
(>\8DD#L	(>8bL]	8f##XL	.
8D#	8a#	8d#	.
8F##X	8dd#	8c#	.
*Xped	*	*	*
8D#J)	8cc#J	8d#J	.
(>8GG#L	8bL	8g#L	.
8D#	8a#	8d#	.
8G#	8g#	8B	.
8E#XJ)	8bJ	8d#J	.
=20	=20	=20	=20
*ped	*	*	*
(>8DD#\L	8a#L	8f#L	.
8D#	8g#	8d#	.
8F#	8a#	8A#	.
*Xped	*	*	*
8D#J)	8bJ	8d#J	.
*ped	*	*	*
(>8DD#\L	4g#	8e#XL	.
8D#	.	8d#	.
8G#	4b	8B	.
*Xped	*	*	*
8D#J)	.	8d#J)	.
*	*v	*v	*
=21	=21	=21
*^	*	*
*ped	*	*	*
2ryy	8DD#	8a# 8f# 8A#	.
.	4A#^>	8r	.
.	.	(>[>4aa#	>
*Xped	*	*	*
.	8A#	.	.
*ped	*	*	*
2c##X\ 2E#X\ 2D#\	8rA	4aa#]	.
.	4A#	.	.
.	.	16gg#LL	.
.	.	16ff#	.
.	8A#	16ee#X	.
*Xped	*	*	*
.	.	16gg#JJ	.
!!LO:PB:g=original
=22	=22	=22	=22
2d#\ 2F#\ 2D#\	8rA	16ff#LL	]
.	.	16ee#X	.
.	4A#	16dd#	.
.	.	16ff#JJ	.
.	.	16ee#LL	.
.	.	16dd#	.
.	8A#	16cc#	.
.	.	16ee#JJ	.
2d#\ 2G#\ 2D#\	8rA	16dd#LL	.
.	.	16cc#	.
.	4B	16b	.
.	.	16a#XJJ	.
.	.	16bLL	.
.	.	16cc#	.
.	8B	16dd#	.
.	.	16g#JJ	.
=23	=23	=23	=23
*ped	*	*	*
\2d# 2F#\ 2D#\	8rA	8a#\)	.
.	4A#^>	8r	.
.	.	.	>
.	.	(>[>4aa#	.
*Xped	*	*	*
.	8A#	.	.
2c##X\ 2E#X\ 2D#\	8rA	16aa#KL]	.
.	.	8bb	.
.	4A#	.	.
.	.	16aa#Jk	.
!	!	!LO:TX:a:t=P:dim. zakodowane w stary sposób:problem	!
!	!	!LO:TX:b:i:t=dim.	!
.	.	20gg#LL	.
.	.	20ff#	.
.	.	20gg#	.
.	8A#	.	.
.	.	20aa#	.
.	.	20ee#XJJ	.
=24	=24	=24	=24
2d#\ 2F#\ 2D#\	8rA	16gg#LL	.
.	.	16ff#	.
.	4A#	16gg#	.
.	.	16dd#JJ	.
.	.	16ff#LL	.
.	.	16ee#X	.
.	8A#	16ff#	.
.	.	16cc#JJ	.
2d#\ 2G#\ 2D#\	8rA	16ee#LL	.
.	.	16dd#	.
.	4B	16ee#	.
.	.	16bJJ	.
.	.	16dd#LL	.
.	.	16a#	.
.	8B	16dd#	.
.	.	16g#JJ	]
!!LO:LB:g=original
=25	=25	=25	=25
*ped	*	*	*
2d#\ 2F#\ 2D#\	8rA	4a#)	.
.	4A#	.	.
.	.	4r	.
*Xped	*	*	*
.	8A#	.	.
2d#\ 2G#\ 2D#\	8rA	8r	pp
.	4B	(>16ff#LL	.
.	.	.	>
.	.	16ee#XJJ	.
.	.	16dd#LL	.
.	.	16a#	.
.	8B	16dd#	.
.	.	16g#JJ	]
=26	=26	=26	=26
2d#\ 2F#\ 2D#\	8rA	4a#)	.
.	4A#^>	.	.
.	.	4r	.
.	8A#)	.	.
.	.	.	f
.	.	8qb/L	.
.	.	8qcc#/	.
.	.	8qdd#/	.
.	.	8qee#X/	.
.	.	8qff#/	.
.	.	8qgg#/	.
*	*	*8va	*
.	.	8qaa#/	.
.	.	8qbb/	.
.	.	8qccc#/	.
.	.	8qddd#/	.
.	.	8qeee#yX/	.
.	.	8qfff#/	.
.	.	8qggg#/	.
.	.	8qaaa#/	.
.	.	8qbbb/	.
.	.	8qcccc#/	.
.	.	8qeeee#X/	.
.	.	8qdddd#/	.
.	.	8qcccc#/	.
.	.	8qbbb/	.
.	.	8qaaa#/	.
.	.	8qggg#/	.
.	.	8qfff#/	.
.	.	8qeee#/	.
.	.	8qddd#/	.
.	.	8qccc#/	.
.	.	8qbb/	.
.	.	8qaa#/	.
.	.	8qgg#/	.
*	*	*X8va	*
!	!	!LO:TX:a:t=loco	!
.	.	8qff#/	.
.	.	8qee#X/	.
.	.	8qdd#/	.
.	.	8qcc#/	.
.	.	8qb/	.
.	.	8qa#/	.
.	.	8qg#/	.
.	.	8qf#/	.
.	.	8qe#y/	.
.	.	8qd#/	.
.	.	8qc#/	.
.	.	8qB/JK)	.
(<8d#L	2G# 2D#	2ryy	.
8e#X	.	.	.
8f#	.	.	.
8BJ)	.	.	.
*v	*v	*	*
!!LO:LB:g=original
=27	=27	=27
*ped	*	*
!LO:TX:b:t=P:łuk pionowo od 2DD# do 2.A#:problem	!	!
2F#\ 2AA#\ 2DD#\	2.A#<^>/	fp
2r	.	.
*	*Xtuplet	*
.	(>12d#L	<
.	12.f#	.
.	24dd#Jk	.
*	*tuplet	*
=28	=28	=28
1rF	[>2dd#)	[
.	(>4dd#]	>
.	8cc#L	.
*Xped	*	*
.	[>8bJ	]]
=29	=29	=29
*^	*^	*
*ped	*	*	*	*
8ryy	(>8FF#L	8bL]	2e	.
4F#	8F#	8a#	.	.
.	8B	8g#	.	.
*Xped	*	*	*	*
8ryy	8A#J)	8f#J)	.	.
!	!	!LO:TX:a:t=P:łuk pionowo od 4d# do 4dd#:problem	!	!
*ped	*	*	*	*
2ryy	(>8BBL	(>4dd#	4d#	.
.	8F#	.	.	.
.	8B	8cc#L	4d#	.
*Xped	*	*	*	*
.	8F#J)	8bJ	.	.
=30	=30	=30	=30	=30
8ryy	(>8c#L	8bL	4e	<
4F#	8F#	8a#	.	.
.	.	8qqa#/	.	.
!	!	!LO:TX:a:t=P:łuk pionowo od 4e do 8g#:problem	!	!
.	8B	8g#	4e	.
8ryy	8A#J)	8f#J)	.	.
!	!	!LO:TX:a:t=P:łuk pionowo od 2d# do 4ff#:problem	!	!
!	!LO:TX:b:t=P:złamana belka:problem	!	!	!
*ped	*	*	*	*
2ryy	(>8BBBL	(>4ff#	2an 2d#	.
.	8F#	.	.	.
.	8B	4ff#	.	.
*Xped	*	*	*	*
.	8B#XJ)	.	.	.
.	.	.	.	[
*v	*v	*	*	*
=31	=31	=31	=31
*ped	*	*	*
(>8d#L	4ryy	4ff# 4an	.
8BB#X	.	.	.
*Xped	*	*	*
.	.	.	.
8C#	8eeL 8g# 8e	4ryy	.
8BnJ 8D#)	8dd#J 8f#	.	.
(>8G#L	8dd#L	4e	.
8B	8cc#	.	.
8E	8.ee	4g#	.
8E#XJ	.	.	.
.	16dd#Jk	.	.
!!LO:LB:g=original
=32	=32	=32	=32
*^	*	*^	*
*	*^	*	*	*	*
4B	2ryy	[<2F#	4dd#	8g#/	2e\	.
.	.	.	.	4.f#/	.	.
(>8A#L)	.	.	8.cc#L	.	.	.
8d#J	.	.	.	.	.	.
.	.	.	16bJk	.	.	.
4c#	8ryy	8F#L]	8bL	2ryy	4f# 4e	.
.	4.F#/	8F#	8a#	.	.	.
4ryy	.	8B	12g#	.	4e	.
.	.	.	12a#	.	.	.
.	.	8A#J)	.	.	.	.
.	.	.	12f#J)	.	.	.
*	*v	*v	*	*v	*v	*
=33	=33	=33	=33	=33
*ped	*	*	*	*
!LO:TX:b:t=P:złamana belka:problem	!	!	!	!
2ryy	(>8BBBL	(>4dd#	4d#	.
.	8F#	.	.	.
.	8B	8cc#/L	4ryy	.
*Xped	*	*	*	*
.	8F#J	8bJ	.	.
4c#	8c#L	16bLL	4e	.
.	.	16a#	.	.
.	8F#	16dd#	.	.
.	.	16cc#JJ	.	.
4ryy	8B	16g#LL	4e	.
.	.	16a#	.	.
.	8A#J)	16g#	.	.
.	.	16f#JJ	.	.
*v	*v	*	*	*
*	*v	*v	*
=34	=34	=34
.	8qd#/	<
*ped	*	*
(<8BBBL	4ff#	.
8BB	.	.
8F#	4ff#)	.
8BJ)	.	.
*Xped	*	*
2ryy	2ff#;> 2an 2d#	.
.	.	[
=35	=35	=35
*^	*^	*
2ryy	8r	(>4ff# 4an 4d#	2ryy	.
.	(>8BB#XL	.	.	.
.	8c# 8C#	8eeL 8g# 8e	.	.
.	8BnJ 8D#	8dd#J 8g#	.	.
4.B	4E	8dd#L	4g#	.
.	.	8cc#	.	.
.	4D#	8.dd#	4f#	.
8G#	.	.	.	.
.	.	16bJk	.	.
*v	*v	*	*	*
!!LO:LB:g=original
=36	=36	=36	=36
4.G# 4.C#	8bL	2e	.
.	8a#	.	.
.	8b	.	.
8B 8C##X)	8g#J	.	.
4D#	4d#	4B#X	<
(<4DD#	4cc#X 4f##X 4A#<)	4ryy	[
*	*v	*v	*
=||37	=||37	=||37
*k[b-e-a-d-]	*k[b-e-a-d-]	*
*ped	*	*
!	!LO:TX:b:i:t=sostenuto	!
8EE-)	(>2cc	.
(>4d- 4G	.	.
*Xped	*	*
4d- 4G)	.	.
.	4..b-	.
*ped	*	*
4E-^>	.	.
(<8EE-	.	.
*Xped	*	*
.	16cc	.
=38	=38	=38
*ped	*	*
8AAA-)	2a-)	.
(>4c 4A- 4E-	.	.
4c 4A- 4E-	.	.
*Xped	*	*
.	(>4..a-	.
*ped	*	*
4c 4A- 4En)	.	.
(<8AA-	.	.
*Xped	*	*
.	16g	.
=39	=39	=39
*ped	*	*
8AAA-)	2g	.
(>4d- 4B- 4F	.	.
*Xped	*	*
8d- 8B- 8F)	.	.
8r	8.fL)	<
*ped	*	*
(<4AA-X^>	.	.
.	(>16ank	.
.	8b-	.
*Xped	*	*
8DD-	8ccJ	.
=40	=40	=40
*ped	*	*
8AAA-)	2dd-	.
(>4d- 4B- 4F	.	.
*Xped	*	*
8d- 8B- 8F)	.	.
8r	2ff	.
*ped	*	*
(<4AA-^>	.	[
*Xped	*	*
8DD-	.	.
=41	=41	=41
*ped	*	*
8GGG)	2e-)	.
(>4d- 4B- 4E-	.	.
!LO:N:vis=8	!	!
4d- 4B- 4E-	.	.
.	(>8dd-L	.
4E-^>	8cc	.
.	8b-	.
*Xped	*	*
8E-)	8ccJ	.
!!LO:PB:g=original
=42	=42	=42
*ped	*	*
(>8C	2a-	.
*Xped	*	*
4c 4A- 4F	.	.
4c 4A- 4F	.	.
.	2f	.
4c 4A- 4Dn	.	.
[>8c [>8A- [>8E-)	.	.
=43	=43	=43
*^	*	*
*ped	*	*	*
2ryy	8c] 8A-] 8E-]	2e-)	.
.	.	.	<
.	(>4EE-	.	.
*Xped	*	*	*
.	8c 8E-	.	.
2dn 2B-	8E-	(>8a-L	.
.	4E-^>	8b-	.
.	.	8gg	.
.	8E-	[>8ffJ	.
.	.	.	[
=44	=44	=44	=44
*ped	*	*	*
2e- 2B-	8E-	8ffL]	.
.	4E-^>	8gJ	.
.	.	2ff	.
*Xped	*	*	*
.	8E-	.	.
*ped	*	*	*
2ryy	8d-L 8G 8E-	.	>
.	8E-J)	.	.
.	8r	8ee-L	.
*Xped	*	*	*
.	(<8EE-/	8dd-J	]]
*v	*v	*	*
=45	=45	=45
*ped	*	*
8EEn)	[>2cc)	.
*Xped	*	*
4B- 4G 4C	.	<
8B- 8G 8C	.	.
!	!LO:TX:a:t=P:linia przerywana od cresc. do dim. w t. 49:problem	!
8B- 8F 8C	(>8cc/L]	.
4B- 4F 4C	8dd-	.
.	8f	.
(<8FF	8dd-J	.
=46	=46	=46
*ped	*	*
8GG)	8enL	.
4B- 4G 4C	8dd-J	.
.	4cc)	.
*Xped	*	*
8B- 8G 8C	.	.
*ped	*	*
8An 8G 8C	(>8e-XL	.
4A 4G 4C	8an	.
.	8cc	.
*Xped	*	*
(<8GG	8ee-J	.
!!LO:LB:g=original
=47	=47	=47
*ped	*	*
8FF#X)	[>2ddn	.
(>4c 4An 4Dn	.	.
*Xped	*	*
8c 8A 8D	.	.
*ped	*	*
8c 8G 8D	8ddL]	.
4c 4G 4D)	8ee-	.
.	8g	.
*Xped	*	*
(<8GG	8ee-J	.
=48	=48	=48
*ped	*	*
8AAn)	8f#XL	.
(>4c 4An 4Dn	8ee-J	.
.	4ddn)	.
*Xped	*	*
8c 8A 8D	.	.
*ped	*	*
8Bn 8A 8D	(>8fnL	.
4B 4A 4D)	8bn	.
.	8dd	.
*Xped	*	*
(<8AA	8ffnJ	.
!!LO:LB:g=original
=49	=49	=49
*ped	*	*
8GG#X)	[>2een	>
!	!LO:TX:a:t=P:problem:"dim." zakodowane w stary sposób	!
!	!LO:TX:b:i:t=dim.	!
4dn 4En	.	.
*Xped	*	*
8d 8E	.	.
*ped	*	*
8AAn	8eeL]	.
4c 4E	8ff	.
.	8cc	.
*Xped	*	*
8c 8E	8ddnJ	]]
=50	=50	=50
*ped	*	*
8GG#X	4een	.
4en 4Bn 4En	.	.
.	4bn	<
*Xped	*	*
8e 8B 8E	.	.
*ped	*	*
!	!LO:TX:a:t=P:brak krzyżyka nad trylem:problem	!
8GGn	2cc#XTT>	.
4e 4B-X 4E	.	.
*Xped	*	*
8e 8B- 8E	.	.
.	16qb#X/LL	.
.	16qcc#/JJ	[
=51	=51	=51
*ped	*	*
!	!LO:TX:b:i:t=dolciss.	!
8FF	8ddnL	.
(>4f 4B- 4F	8ee-	.
.	8gg	.
*Xped	*	*
8f 8B- 8F	8ffJ	.
*ped	*	*
8e- 8An 8F	8ddL	.
4e- 4A 4F	8ee-	.
.	8b-	.
*Xped	*	*
8e- 8A 8F)	8ccJ	.
!!LO:LB:g=original
=52	=52	=52
*ped	*	*
8FF	4ddn	.
(>4dn 4An 4F	.	.
.	4an	<
*Xped	*	*
8d 8A 8F	.	.
*ped	*	*
8d 8A-X 8F	4bnT	.
4d 4A- 4F	.	.
!	!LO:TX:a:t=P:cresc. zakodowane w stary sposób:problem	!
!	!LO:TX:b:i:t=cresc.	!
.	4cc-XT	.
*Xped	*	*
8d 8A- 8F-X)	.	.
.	16qb-X/LL	.
.	16qcc-/JJ	[
=53	=53	=53
*^	*	*
*ped	*	*	*
2ryy	8EE-/	2cc)	f
.	(>4e- 4A- 4E-	.	.
*Xped	*	*	*
.	8dn 8A- 8E-	.	.
4d-X	8A-L 8E-	(>4..b-	.
.	8GJ) 8E-	.	.
4ryy	8r	.	.
.	(<8EEn	.	.
.	.	16cc	.
=54	=54	=54	=54
*ped	*	*	*
2ryy	8FF/)	8b-L	.
.	(>4c 4F 4C	8anJ	.
.	.	2a-X	.
*Xped	*	*	*
.	8Bn 8F 8C	.	.
4B-X	8FL 8C	.	.
.	8E-J) 8C	.	.
4ryy	8r	8gL	.
.	(<8CC	8g-XJ	.
*v	*v	*	*
=55	=55	=55
*ped	*	*
8DD-)	4en)	.
(>4A- 4F	.	.
*Xped	*	*
.	[<4f	.
8e- 8An 8F	.	.
*ped	*	*
8d- 8B- 8F)	(>8fL]	.
(<4DD-^>	8an	.
.	8.b-	.
8CC	.	<
*Xped	*	*
.	16ccJk	.
=56	=56	=56
*ped	*	*
8BBB-)	2dd-	.
(>4F	.	.
8c 8F 8D-	.	.
8B- 8F 8D-)	2ff	[
(<4BBB-^>	.	.
*Xped	*	*
8AAA-	.	.
!!LO:LB:g=original
=57	=57	=57
*ped	*	*
8GGG)	2e-	>
(>4d- 4B- 4E-	.	.
4d- 4B- 4E-	.	.
.	8dd-L	]
!	!LO:TX:a:t=P:linia przerywana od dim. do 2dd w t. 60:problem	!
4E-^>)	8cc	>
.	8b-	.
*Xped	*	*
8E-	8ccJ	.
=58	=58	=58
*ped	*	*
(>8AA-	2a-	.
4c 4A- 4E-	.	.
8c 8A- 8E-)	.	.
*Xped	*	*
8r	2f	.
(<4CC	.	.
8DD-	.	.
=59	=59	=59
*ped	*	*
8EE-	2e-	.
(4c 4A- 4E-)	.	.
*Xped	*	*
8c 8A- 8F	.	.
*ped	*	*
8d- 8G 8E-	8dd-L	.
4E-^>)	8cc	.
.	8b-	.
*Xped	*	*
(>8E-	8ccJ	.
=60	=60	=60
*^	*	*
*ped	*	*	*
2c 2A-	8E-	2a-	<
.	4E-^>	.	.
*Xped	*	*	*
.	.	.	.
.	8F	.	.
2c-X 2A-	8E-	2ddn	.
.	4E-^>	.	.
.	8E-)	.	.
*v	*v	*	*
=61	=61	=61
*ped	*	*
!LO:TX:b:t=P:graficzne oznacz. crescendo od 8EE do 4e pod dolną pięciolinią:problem	!	!
(>8EE-L	[>2ddn	>
8BB-	.	.
8G	.	.
*Xped	*	*
8c-XJ	.	.
*ped	*	*
8B-L	8dd]	.
8GJ	4ee-)	]
4e-)	.	.
*Xped	*	*
.	(>8ee-	pp
=62	=62	=62
*	*^	*
!	!LO:TX:a:t=P:łuk od 4ee- do 4a-:problem	!	!
!	!	!	!LO:HP:b
(>8EE-\L	2ff	4ee-	<
8AA-	.	.	.
8F	.	2dd-X	.
8B-J	.	.	.
8A-L	4.bb-	.	.
8FJ	.	.	.
4a-> 4d->)	.	4ryy	[
.	8bb-/	.	.
*	*v	*v	*
!!LO:PB:g=original
=63	=63	=63
!LO:TX:b:t=P:graficzne oznacz. cresc. od 8EE- do 4g 4B- pod dolną pięciolinią:problem	!	!
*ped	*	*
(>8EE-\L	8cccL	>
8BB-	8bb-	.
8E-	8gg	.
*Xped	*	*
8FJ	8ee-J	.
*ped	*	*
8GL	4.dd-/)	.
8E-J	.	.
4g> 4B-)	.	.
*Xped	*	*
.	(>8dd-/	]
=64	=64	=64
!	!	!LO:HP:b
*ped	*	*
(>8EE-\L	4dd-	<
8AA-	.	.
8E-	4.cc	.
*Xped	*	*
8A-J	.	.
*ped	*	*
8G-XL	.	.
8E-J	4aa-/	.
4g-X> 4c 4G-)	.	[
*Xped	*	*
.	8aa-/	.
=65	=65	=65
*ped	*	*
!	!	!LO:HP:b
(>8EE-\L	4aa-	<
8AA-	.	.
8E-	2cc-X)	.
*Xped	*	*
8FJ	.	.
*ped	*	*
8G-XL	.	.
8E-J	.	.
*Xped	*	*
4g-X> 4c-X 4G-)	(>4cc-/	[
=66	=66	=66
8r	2cc-X	.
!	!	!LO:HP:b
*ped	*	*
(>8EE-\L	.	<
8E-	.	.
*Xped	*	*
8A-J	.	.
8G-XL	4.b-/	.
8E-J	.	.
8dn 8B- 8F)	.	[
8r	8f)	.
=67	=67	=67
*	*^	*
!LO:N:vis=1	!	!	!
*ped	*	*	*
!LO:TX:b:t=P:łuk pionowo od 2E do 2g:problem	!	!	!
2B- 2E-	4rff	1g)	.
.	8rff	.	.
!	!LO:TX:a:t=P:cresc. zakodowane w stary sposób:problem	!	!
!	!LO:TX:b:i:t=cresc.	!	!
.	8ee-	.	<
.	8qqee-/	.	.
2r;>	2ee-tt\;>	.	[[
*Xped	*	*	*
*	*v	*v	*
=||68	=||68	=||68
*k[f#c#g#d#a#]	*k[f#c#g#d#a#]	*
*	*^	*
*ped	*	*	*
2.f#>\	2.dd#ttt	1f#	>
.	.	.	>
.	8qqcc#/ttt	.	.
8e>\L	8cc#Lttt	.	.
*Xped	*	*	*
.	8qqb/ttt	.	.
!	!LO:TX:a:i:t=poco più lento	!	!
8d#>\J	8bJttt	.	]
*	*v	*v	*
=69	=69	=69
*^	*	*
*	*^	*	*
!	!	!	!LO:TX:b:i:t=dolce	!
*ped	*	*	*	*
!	!	!LO:TX:b:t=P:złamana belka:problem	!	!
4ryy	8ryy	(>8FFF#L	8bLttt	.
*Xped	*	*	*	*
*ped	*	*	*	*
.	.	.	8qqa#/ttt	.
.	4.F#/	8F#	8a#ttt	.
*Xped	*	*	*	*
.	.	.	8qqg#/ttt	.
*ped	*	*	*	*
4e	.	8e 8B	8g#ttt	.
*Xped	*	*	*	*
.	.	.	8qqf#/ttt	.
*ped	*	*	*	*
.	.	8A#J)	8f#J	.
*Xped	*	*	*	*
.	.	.	(<8qqd#/L	.
.	.	.	8qdd#/J	.
*ped	*	*	*	*
!	!	!LO:TX:b:t=P:złamana belka:problem	!	!
2ryy	2ryy	(>8BBBL	4dd#tt)	.
*Xped	*	*	*	*
.	.	8f# 8F#	.	.
.	.	.	8qqcc#/ttt	.
*ped	*	*	*	*
.	.	8e 8A#	8cc#yLttt	.
*Xped	*	*	*	*
.	.	.	.	.
.	.	.	8qqb/ttt	.
*ped	*	*	*	*
.	.	8d#J 8B)	8bJttt	.
*Xped	*	*	*	*
.	.	.	.	.
=70	=70	=70	=70	=70
*ped	*	*	*	*
4ryy	8ryy	(>8e 8c#L	8bLttt	.
*Xped	*	*	*	*
.	.	.	8qqa#/ttt	.
*ped	*	*	*	*
.	4.F#/	8F#	8a#ttt	.
*Xped	*	*	*	*
.	.	.	8qqg#/ttt	.
*ped	*	*	*	*
4e	.	8B	8g#ttt	.
*Xped	*	*	*	*
.	.	.	8qqf#/ttt	.
*ped	*	*	*	*
.	.	8A#J)	8f#J	.
*Xped	*	*	*	*
.	.	.	.	<
.	.	.	(<8qd#/L	.
.	.	.	8qan/	.
.	.	.	8qff#/J	.
*ped	*	*	*	*
!	!	!LO:TX:b:t=P:złamana belka:problem	!	!
!	!	!	!LO:TX:a:t=P:tryl do 4ff# w t. 71:problem	!
8ryy	2ryy	(>8BBBL	4ff#TT)	.
4.B	.	8B	.	.
.	.	8an 8d#	4ff#TTT	.
*Xped	*	*	*	*
.	.	8BJ)	.	[
*	*v	*v	*	*
!!LO:LB:g=original
=71	=71	=71	=71
*	*	*^	*
*ped	*	*	*	*
8an\L 8d#\ 8B#X\	2ryy	4ff#	4ryy	.
*Xped	*	*	*	*
8BB#X	.	.	.	.
!	!	!	!	!LO:DY:a
.	.	8qg#/L	4qqg#\	.
.	.	8qee/J)	.	.
*	*	*v	*v	*
*ped	*	*	*
!LO:TX:b:t=P:łuk pionowo od 8C# do 8e:problem	!	!	!
8e 8G# 8C#	.	8eeTT/L	>
*Xped	*	*	*
.	.	8qqdd#/TTT	.
*ped	*	*	*
!LO:TX:b:t=P:łuk pionowo od 8D# do 8f#:problem	!	!	!
8f#>J 8B# 8G# 8D#	.	8dd#JTTT	.
*Xped	*	*	*
*ped	*	*	*
!	!	!LO:TX:b:i:t=poco rallent.	!
8EE	8ryy	2ryy	.
!LO:TX:b:t=P:niepoprawnie wyświetla się 4.G# 4.E:problem	!	!	!
(<8c#L	4.G# 4.E	.	]
8e	.	.	.
8G#J)	.	.	.
*v	*v	*	*
.	(>8qdd#/L	.
.	8qf##X/	.
.	8qg#/	.
.	8qa#/	.
.	8qg#/	.
.	8qf##/	.
.	8qg#/	.
.	8qa#/	.
.	8qb/	.
.	8qcc#/	.
.	8qdd#/	.
.	8qee/	.
.	8qff#X/	.
.	8qgg#/	.
*	*8va	*
.	8qaa#/	.
.	8qbb/	.
.	8qccc#/	.
.	8qddd#/	.
.	8qeee/	.
.	8qfff#/	.
.	8qggg#/	.
.	8qaaa#/	.
.	8qbbb/	.
.	8qggg#/	.
.	8qeee/	.
.	8qccc#/	.
*	*X8va	*
!	!LO:TX:a:t=loco	!
.	8qbb/	.
.	8qgg#/	.
.	8qee/	.
.	8qdd#/J	.
=72	=72	=72
*^	*	*
*	*^	*	*
!	!	!	!LO:TX:a:t=P:tryl do 8f#:problem	!
!	!	!	!LO:TX:b:t=a tempo	!
*ped	*	*	*	*
2ryy	8ryy	(>8FF#L	4.cc#TT)	.
!	!	!LO:N:vis=2	!	!
.	2F#/	8F#	.	.
.	.	8e 8A#	.	.
*Xped	*	*	*	*
.	.	.	8qqb/TTT	.
.	.	8BJ	8bTTT	.
*ped	*	*	*	*
2e	.	8c#L	8bLTTT	.
*Xped	*	*	*	*
.	.	.	8qqa#/TTT	.
*ped	*	*	*	*
.	4F#/	8F#	8a#TTT	.
*Xped	*	*	*	*
.	.	.	8qqg#/TTT	.
*ped	*	*	*	*
.	.	8B	8g#TTT	.
*Xped	*	*	*	*
.	.	.	8qqf#/TTT	.
*ped	*	*	*	*
.	8ryy	8A#J)	8f#J	.
*Xped	*	*	*	*
.	.	.	.	.
!!LO:LB:g=original
=73	=73	=73	=73	=73
.	.	.	(<8qd#/L	.
.	.	.	8qdd#/J	.
.	.	.	8qqdd#/)	.
*ped	*	*	*	*
8BBB	2ryy	8ryy	4dd#tt	.
(<8f#L	.	2F#\	.	.
*Xped	*	*	*	*
.	.	.	8qcc##X/L	.
.	.	.	8qdd#/	.
.	.	.	8qee/	.
.	.	.	8qdd#/	.
.	.	.	8qgg#/	.
.	.	.	8qff#/J	.
*	*	*	*Xtuplet	*
8e	.	.	48b#XLLL	.
.	.	.	48cc#X	.
.	.	.	48dd#	.
.	.	.	48cc#	.
.	.	.	48gg#	.
.	.	.	48ff#JJJ	.
8d#J)	.	.	48a#LLL	.
.	.	.	48bn	.
.	.	.	48cc#	.
.	.	.	48b	.
.	.	.	48gg#	.
.	.	.	48ff#JJJ	.
*	*	*	*tuplet	*
.	.	.	8qqb/	.
*ped	*	*	*	*
2e	(>8c#L	.	8bTTL	.
*Xped	*	*	*	*
.	.	.	8qqa#/TTT	.
*ped	*	*	*	*
!	!	!LO:N:vis=4	!	!
.	8F#	4.F#/	8a#TTT	.
*Xped	*	*	*	*
.	.	.	8qqg#/TTT	.
*ped	*	*	*	*
.	8B	.	8g#TTT	.
*Xped	*	*	*	*
.	.	.	8qqf#/TTT	.
*ped	*	*	*	*
.	8A#J)	.	8f#J	.
*Xped	*	*	*	*
*v	*v	*v	*	*
=74	=74	=74
.	(>(<8qd#/L	.
.	8qan/J)	<
*^	*	*
!LO:TX:b:t=P:złamana belka:problem	!	!	!
*ped	*	*	*
4.ryy	8BBBL	16ff#LL	.
.	.	32gg#L	.
.	.	32ff#JJJ	.
.	8B	48gg#LLL	.
.	.	48ff#	.
.	.	48gg#	.
.	.	48ff#	.
.	.	48gg#	.
.	.	48ff#JJJ	.
.	8an 8d#	4ff#TT)	.
!LO:N:vis=2.	!LO:N:vis=2.	!	!
2B	8BJ	.	[
!	!	!	!LO:DY:a
.	4.a 4.d#	2ff#TTT	>
*Xped	*	*	*
8ryy	8r	.	]
*v	*v	*	*
!!LO:LB:g=original
=75	=75	=75
*ped	*	*
>4an 4dn 4cn	4ff#TTT	pp
!	!LO:TX:b:i:t=dim.	!
!	!LO:TX:b:t=rallent.	!
4a 4d	4ff#	.
.	8qee#X/L	.
.	8qff#/	.
.	8qggn/	.
.	8qff#/	.
.	8qaan/	.
.	8qgg/	.
.	8qff#/J	.
4a 4d 4c	4ff#	.
*Xped	*	*
4r;>	4r;>	.
=76	=76	=76
*^	*^	*
!	!	!LO:TX:a:t=Tempo primo	!	!
(>4dn	8cnL	(>8ff#L	8an	.
.	8B	8ggn	4gn	.
!LO:N:vis=4	!	!	!	!
4.c	8B-X	8ee	.	.
.	8AnJ	8ffnJ	4fn	.
.	8A-XL	8ccnL	.	.
4Bn	8Gn	8ddn 8f	4.ryy	.
.	8F#X	8dd#X 8f#X	.	.
8B	8G#XJ	8bJ 8e	.	.
*v	*v	*	*	*
=77	=77	=77	=77
*	*	*^	*
8F#)	8d#	8d#L)	2.ryy	.
8r	(>4g#)	8B#X	.	.
4r	.	8e	.	.
!	!LO:TX:a:t=P:linia przerywana od cresc. do dim. w t. 80:problem	!	!	!
.	4a#	8c#J	.	<
2r	.	8f#L	.	.
.	8bnL	8d#	.	.
.	8dd#	8e	[<4e/	.
.	8cc#J	8g#J	.	.
=78	=78	=78	=78	=78
1rF	8a#	8f#L 8e]	2.ryy	.
.	4b	8d#	.	.
.	.	8g#	.	.
.	4cc#	8eJ	.	.
.	.	8a#L	.	.
.	8dd#L	8f#	.	.
.	8ff#	8g#	[<4g#/	.
.	8eeJ	8bJ	.	.
*	*	*v	*v	*
!!LO:PB:g=original
=79	=79	=79	=79
4r	8cc# 8a#	8g#L]	.
.	4dd#	8f#	.
(>8G#L	.	8b	.
8c# 8C#J	8ee	8eJ	.
!	!LO:TX:a:i:t=ritenuto	!	!
8F##XL	8dd#L 8a#	4ryy	.
8d# 8D#	8ff##X 8cc# 8f##X	.	.
.	8qg#/	.	.
!	!LO:TX:a:t=P:łuk pionowo od 4g# do 8aa#:problem	!	!
8c##X 8E	8aa# 8b 8g#	4g#	.
8BJ 8E#X)	8gg#J 8cc##X	.	.
=80	=80	=80	=80
*^	*	*	*
(>8f#>\	4F#	8cc#L 8a#	4ryy	>
4B	.	8dd# 8an	.	.
.	4E	8ee	4g#	.
8c#	.	[>8a#XJ	.	.
8d#	4D#	8a#L] 8f##X	2ryy	.
4G#	.	8b#X 8f##	.	.
.	.	.	.	>
*ped	*	*	*	*
.	8C#L	8dd# 8e#X	.	.
*Xped	*	*	*	*
!	!LO:TX:b:t=P:łuk pionowo od 8FF# do 8A#:problem	!	!	!
8ryy	8A#J 8FF#)	8cc#J 8en	.	.
*v	*v	*	*	*
*	*v	*v	*
=81	=81	=81
*ped	*	*
!	!LO:TX:a:t=in tempo	!
8B 8F# 8BB	8b 8d#)	]
.	.	p
4F#^>	8r	.
.	(>8.bbL	.
(>8F#	.	.
.	16aa#XJk	.
8f# 8d# 8B	16aanLL	.
.	16gg#	.
4F#	16ff#	.
.	16aaJJ	.
.	16gg#LL	.
.	16ff#	.
*Xped	*	*
8F#)	16ee	.
.	16gg#JJ	.
=82	=82	=82
*ped	*	*
8BBB	16ff#LL	.
.	16ee	.
(>4F#^>	16dd#	.
.	16ff#JJ	.
.	16eeLL	.
.	16dd#	.
8F#	16cc#	.
.	16eeJJ	.
8f# 8d# 8B	16dd#LL	.
.	16cc#	.
4F#	16b	.
.	16anJJ	.
.	16bLL	.
.	16cc#	.
8F#)	16dd#	.
*Xped	*	*
.	16aJJ	.
!!LO:LB:g=original
=83	=83	=83
*ped	*	*
8BB	16g#\LL	.
.	16an	.
4G#^>	16b	.
.	16cc#JJ	.
.	16dd#LL	.
.	16ee	.
(>8G#	16ff#	.
.	16ff##XJJ	.
8g# 8e 8B	16gg#LL	.
.	16ccc#	.
4G#	16bb	.
.	16ddd#JJ	.
*	*8va	*
.	16eeeLL	.
.	16fff##y	.
8G#)	16ggg#	.
*Xped	*	*
.	16aaa#XJJ	.
=84	=84	=84
*^	*	*
*ped	*	*	*
4.ryy	8BBB	16bbbLL	.
.	.	16dddd#	.
.	(>4F#	16cccc#	.
.	.	16bbbJJ	.
.	.	16ggg#LL	.
.	.	16eee	.
4F#	8F#	16ccc#	.
.	.	16bbJJ	.
*	*	*X8va	*
!	!	!LO:TX:a:t=loco	!
.	8eL	16gg#LL	.
.	.	16ee	.
4.ryy	8F#J	16cc#	.
.	.	16bJJ	.
.	4rD)	16g#LL	.
.	.	16e	.
.	.	16c#	.
*Xped	*	*	*
.	.	16G#<JJ)	.
*v	*v	*	*
=85	=85	=85
!	!LO:TX:a:t=1	!
*ped	*	*
8BBB	(<16F#<LL	.
.	16d#	.
!	!LO:TX:a:t=1	!
4F#^>	16f#	.
.	16dd#JJ)	.
.	(>8.bbL	.
(>8F#	.	.
.	16aa#XJk	.
8f# 8d# 8B	16aanLL	.
.	16ggn	.
4F#	16ff#	.
.	16aaJJ	.
.	16ggLL	.
.	16ff#	.
8F#)	16ee	.
*Xped	*	*
.	16ggJJ	.
!!LO:LB:g=original
=86	=86	=86
*ped	*	*
8BB	16ff#LL	.
.	16ee	.
(>4F#^>	16dd#	.
.	16ggnJJ	.
.	16ff#LL	.
.	16ee	.
8F#	16dd#	.
.	16eeJJ	.
8f# 8d# 8B	16dd#LL	.
.	16ccn	.
4F#	16b	.
.	16anJJ	.
.	16bLL	.
.	16cc	.
8F#)	16f#	.
*Xped	*	*
.	16bJJ	.
=87	=87	=87
*ped	*	*
8BBB	16gnLL	.
.	16a#X	.
(>4Gn^>	16b	.
.	16cc#JJ	.
.	16dd#LL	.
.	16ee	.
8G	16ff#	.
.	16ggnJJ	.
8gn 8e 8B	16aa#XLL	.
.	16cccn	.
4G	16bb	.
.	16ddd#JJ	.
*	*8va	*
.	16eeeLL	.
.	16fff#	.
8G)	16gggn	.
*Xped	*	*
.	16aaa#JJ	.
=88	=88	=88
*ped	*	*
8BBn	16bbb#XLL	.
.	16dddd#	.
(>4F#^>	16cccc#	.
.	16bbbnJJ	.
.	16ggg#XLL	.
.	16eee	.
8F#	16ccc#	.
.	16bbJJ	.
*	*X8va	*
!	!LO:TX:a:t=loco	!
8e	16gg#LL	.
.	16ee	.
4F#	16cc#	.
.	16bJJ	.
.	16g#LL	.
.	16e	.
8F#)	16c#	.
*Xped	*	*
.	16F#<JJ)	.
!!LO:LB:g=original
=89	=89	=89
*ped	*	*
!	!LO:TX:b:i:t=calando	!
8BBB	[>2dd#)	.
(>4F#^>	.	.
8F#	.	.
8f# 8d# 8B	(>16dd#LL]	.
.	16ee	.
4F#	16dd#	.
.	16cc#JJ	.
.	16dd#LL	.
.	16ee	.
8F#)	16ff#	.
*Xped	*	*
.	16f#JJ)	.
=90	=90	=90
*^	*	*
*ped	*	*	*
8BB	2ryy	[>2dd#	.
\4F#^>	.	.	.
8F#\	.	.	.
*clefG2	*	*	*
8f#	2d# 2B	(>16dd#LL]	.
.	.	16ee	.
4g#^>	.	16dd#	.
.	.	16cc#JJ	.
.	.	16dd#LL	.
.	.	16ee	.
8f#	.	16ff#	.
.	.	16bJJ	.
=91	=91	=91	=91
*Xped	*	*	*
4d# 4B 4F#	2ryy	4bb) 4dd#	.
4r	.	4r	.
*clefF4	*	*	*
!	!	!LO:TX:a:t=P:niepoprawnie wyświetlają się wysokości dźwięków:problem	!
4ryy	4BB	(>4d# 4B< 4F#<	.
4A#^> 4F#^>	4EE	16d#LL	.
.	.	16f#	.
.	.	16.e	.
.	.	32d#JJk	.
=92	=92	=92	=92
2.ryy	2BB	2d# 2B< 2F#<)	.
.	4BB	(>4d# 4B< 4F#<	.
4B^> 4G#^>	4EE	16d#LL	.
.	.	16f#	.
.	.	16.e	.
.	.	32d#JJk	.
=93	=93	=93	=93
*ped	*	*	*
4BB\	4ryy	4d# 4B< 4F#<	.
.	.	.	>
4rBB	4rA	16d#LL	.
.	.	16b	.
*Xped	*	*	*
.	.	16.f#	.
.	.	32d#JJk	.
4FF#\	2ryy	4d#< 4B< 4F#<	.
4FFF#\	.	4c#< 4A#< 4F#<	]]
*v	*v	*	*
=94	=94	=94
4BBB\	4d#< 4B< 4F#<)	.
!LO:TX:b:t=Fine.	!	!
4rBB	4r	.
2rBB	2r	.
==	==	==
*-	*-	*-
!!title: @{OTL}; @{OPS} @{ONM} publisher: @{PPR}
!!!RDF**kern: > = above
!!!RDF**kern: < = below
!!!RDF**dynam: > = "dim."
!!!ENC: Zofia Trojan
!!!END: 2018-07-12
!!!EED: Emilia Ziętek
!!!EST: revision finished 2018-07-14
!!!rism-genre: Nocturne
!!!rism-key: B major
!!!rism-opus: op. 62, no. 1
!!!rism-title: Nocturne in B major op. 62, no. 1
!!!rism-permalink: https://opac.rism.info/search?id=1001030767&View=rism
!!!rism-773a-OPR: 1001030766
!!!rism-parent-permalink: https://opac.rism.info/search?id=1001030766&View=rism
